svgs/thin/calendar-check.svg

<svg xmlns="http://www.w3.org/2000/svg" viewBox="0 0 448 512"><!--! Font Awesome Pro 6.6.0 by @fontawesome - https://fontawesome.com License - https://fontawesome.com/license (Commercial License) Copyright 2024 Fonticons, Inc. --><path d="M128 8c0-4.4-3.6-8-8-8s-8 3.6-8 8l0 56L64 64C28.7 64 0 92.7 0 128l0 48 0 16L0 448c0 35.3 28.7 64 64 64l320 0c35.3 0 64-28.7 64-64l0-256 0-16 0-48c0-35.3-28.7-64-64-64l-48 0 0-56c0-4.4-3.6-8-8-8s-8 3.6-8 8l0 56L128 64l0-56zM16 192l416 0 0 256c0 26.5-21.5 48-48 48L64 496c-26.5 0-48-21.5-48-48l0-256zM112 80l0 40c0 4.4 3.6 8 8 8s8-3.6 8-8l0-40 192 0 0 40c0 4.4 3.6 8 8 8s8-3.6 8-8l0-40 48 0c26.5 0 48 21.5 48 48l0 48L16 176l0-48c0-26.5 21.5-48 48-48l48 0zM333.7 285.7c3.1-3.1 3.1-8.2 0-11.3s-8.2-3.1-11.3 0L208 388.7l-66.3-66.3c-3.1-3.1-8.2-3.1-11.3 0s-3.1 8.2 0 11.3l72 72c3.1 3.1 8.2 3.1 11.3 0l120-120z"/></svg>

<svg xmlns="http://www.w3.org/2000/svg" viewBox="0 0 448 512"><!--! Font Awesome Pro 6.4.0 by @fontawesome - https://fontawesome.com License - https://fontawesome.com/license (Commercial License) Copyright 2023 Fonticons, Inc. --><path d="M128 8c0-4.4-3.6-8-8-8s-8 3.6-8 8V64H64C28.7 64 0 92.7 0 128v48 16V448c0 35.3 28.7 64 64 64H384c35.3 0 64-28.7 64-64V192 176 128c0-35.3-28.7-64-64-64H336V8c0-4.4-3.6-8-8-8s-8 3.6-8 8V64H128V8zM16 192H432V448c0 26.5-21.5 48-48 48H64c-26.5 0-48-21.5-48-48V192zM112 80v40c0 4.4 3.6 8 8 8s8-3.6 8-8V80H320v40c0 4.4 3.6 8 8 8s8-3.6 8-8V80h48c26.5 0 48 21.5 48 48v48H16V128c0-26.5 21.5-48 48-48h48zM333.7 285.7c3.1-3.1 3.1-8.2 0-11.3s-8.2-3.1-11.3 0L208 388.7l-66.3-66.3c-3.1-3.1-8.2-3.1-11.3 0s-3.1 8.2 0 11.3l72 72c3.1 3.1 8.2 3.1 11.3 0l120-120z"/></svg>
